X:1650
T:Engelska 1
D:Filarfolket `Birfilar Musik frn Malm'
M:4/4
N:from the playing of Gisen Malmqvist.
O:Sweden
R:Engelska
Z:Richard Robinson 
%%TUNEURL: http://www.leeds.ac.uk/music/Info/RRTuneBk/gettune/00000c56.html
%%ID:00000c56
K:F
Ac |\
f2fc A2Ac | B2G2 G2 eg | b2bg e2eg | fage f2 ::
ag |\
f2ff gfef | g2g2 c'2 b2 | a2aa bagf | gbeg  f2 :|
